X:1
T:There's a Wideness in God's Mercy
T:There's a Wideness in God's Mercy
%%score ( 1 2 ) ( 3 4 )
L:1/8
M:4/4
K:Bb
V:1 treble nm="Piano" snm="Pno."
V:2 treble 
V:3 bass nm="Piano" snm="Pno."
V:4 bass 
V:1
 [DF]2 Bc [EB]2 [EA]2 | F2 cd [Dc]2 [DB]2 | [B,G]2 [B,F]2 E2 D2 | C2 [C=E]2 [CF]4 | %4
w: 1~There’s a _ wide- ness|in God’s _ mer- cy|like the wide- ness|of the sea;|
w: 2~There is _ wel- come|for the _ sin- ner|and more gra- ces|for the good;|
w: 3~For the _ love of|God is _ broa- der|than the mea- sure|of our mind;|
w: 4~If our _ love were|but more _ sim- ple,|we would take him|at his word,|
 F2 GF [DF]2 dB | F2 GF [DF]2 [DB]2 | [DB]2 [EB]2 Bd [DB][EG] | [CF]2 [Ec]2 [DB]4 |] %8
w: there’s a _ kind- ness _|in his _ jus- tice|which is more _ than _|li- ber- ty.|
w: there is _ mer- cy _|with the _ Sav- ior;|there is heal- * ing _|in his blood.|
w: and the _ heart of _|the E- * ter- nal|is most won- * der- *|ful- ly kind.|
w: and our _ lives would _|be il- * lu- mined|by the pre- * sence _|of our Lord.|
V:2
 x2 D2 x4 | E2 E2 x4 | x4 A,C B,=B, | C2 x6 | E2 E2 x2 D2 | E2 E2 x4 | x4 D2 x2 | x8 |] %8
V:3
 [B,,F,]2 [B,,F,]2 [C,F,]2 [C,F,]2 | [A,,F,]2 [F,,F,]2 [B,,F,]2 [B,,F,]2 | E,2 [D,F,]2 F,2 F,2 | %3
 [C,=E,]2 [C,B,]2 [F,A,]4 | [F,A,]2 [F,A,]2 [B,,B,]2 [B,,F,]2 | %5
 [A,,F,]2 [F,,A,]2 [B,,B,]2 [B,,F,]2 | [G,B,]2 [_G,B,]2 [F,B,][^F,A,] =G,B, | B,A, G,A, [B,,B,]4 |] %8
V:4
 x8 | x8 | E,2 x2 C,A,, B,,G,, | x8 | x8 | x8 | x6 G,E, | F,2 F,,2 x4 |] %8

